!!!COM: Bach, Johann Sebastian
!!!OTA: Das wohltemperirte Clavier
!!!OPR: Das wohltemperierte Klavier
!!!OTL: Fuga 4, Vol. 2
!!!XEN: The Well-Tempered Clavier, Volume 2, Fugue 4.
!!!ONB: C-sharp minor, 3-part
!!!SCT: BWV 873b
!!!YEC: Copyright 1994, David Huron
!!!YEM: Rights to all derivative electronic formats reserved.
**kern	**kern	**kern
*staff2	*staff1	*staff1
*clefF4	*clefG2	*clefG2
*k[f#c#g#d#]	*k[f#c#g#d#]	*k[f#c#g#d#]
*M12/16	*M12/16	*M12/16
*c#:	*c#:	*c#:
*MM84	*MM84	*MM84
=1	=1	=1
16C#	8.r	8.r
16BB#	.	.
16C#	.	.
16D#	8.r	8.r
16C#	.	.
16D#	.	.
16GG#	8.r	8.r
16AA#	.	.
16BB#	.	.
16C#	8.r	8.r
16D#	.	.
16E	.	.
=2	=2	=2
16F#	8.r	8.r
16E	.	.
16F#	.	.
16D#	8.r	8.r
16G#	.	.
16F#	.	.
16E	8.r	16g#
16D#	.	16f##
16E	.	16g#
[8.C#	8.r	16a#
.	.	16g#
.	.	16a#
=3	=3	=3
8.C#]	8.r	16d#
.	.	16e#
.	.	16f##
8.BB	8.r	16g#
.	.	16a#
.	.	16b
8.AA#	8.r	16cc#
.	.	16b
.	.	16cc#
8.F##	8.r	16a#
.	.	16dd#
.	.	16cc#
=4	=4	=4
8.GG#	8.r	16b
.	.	16a#
.	.	16b
4.E	8.r	16g#
.	.	16cc#
.	.	16b
.	8.r	16an
.	.	16g#
.	.	16a
8.D#	8.r	16f#
.	.	16b
.	.	16a
=5	=5	=5
8.E	16c#	8.g#
.	16B#	.
.	16c#	.
8.BB#	16d#	4.f#
.	16c#	.
.	16d#	.
8.C#	16G#	.
.	16A#	.
.	16B#	.
[8.c#	16c#	8.e
.	16d#	.
.	16e	.
=6	=6	=6
8.c#]	16f#	8.d#
.	16e	.
.	16f#	.
8.B#	16d#	8.dd#
.	16g#	.
.	16f#	.
8.c#	16e	8.g#
.	16d#	.
.	16e	.
8.F#	16c#	[8.a
.	16f#	.
.	16e	.
=7	=7	=7
8.Bn	16d#	8.a]
.	16c#	.
.	16d#	.
8.E	16B	4.g#
.	16e	.
.	16d#	.
4.A	16c#	.
.	16d#	.
.	16e	.
.	16d#	[8.f#
.	16e	.
.	16c#	.
=8	=8	=8
[4.G#	[4.B#	16f#]
.	.	16g#
.	.	16a
.	.	16g#
.	.	16a
.	.	16f#
16G#]	8.B#]	4.e
16F#	.	.
16G#	.	.
16E	[8.c#	.
16A	.	.
16G#	.	.
=9	=9	=9
16F#	8.c#]	8.d#
16E	.	.
16F#	.	.
16D#	8.B#	8.r
16G#	.	.
16F#	.	.
16E	[4.c#	16g#
16D#	.	16f#
16E	.	16g#
16C#	.	16e
16F#	.	16a
16E	.	16g#
=10	=10	=10
8.D#	8.c#]	16f#
.	.	16e
.	.	16f#
8.G#	4.B	16d#
.	.	16g#
.	.	16f#
[4.C#	.	16e#
.	.	16d#
.	.	16c#
.	16A	[8.f#
.	16G#	.
.	16F#	.
=11	=11	=11
16C#]	4.G#	8.f#]
16BB	.	.
16C#	.	.
16GG#	.	4.en
16C#	.	.
16BB	.	.
16AA#	4.F#	.
16GG#	.	.
16FF#	.	.
[8.BB	.	16d#
.	.	16c#
.	.	16B
=12	=12	=12
8.BB]	16E	4.c#
.	16D#	.
.	16E	.
4.AAn	16C#	.
.	16F#	.
.	16E	.
.	16D#	4.B
.	16C#	.
.	16BB	.
16GG#	[8.E	.
16FF#	.	.
16EE	.	.
=13	=13	=13
8.FF#	8.E]	16A
.	.	16G#
.	.	16A
8.BB	8.D#	16F#
.	.	16B
.	.	16A
8.EE	8.E	16G#
.	.	16B
.	.	[16e
8.r	8.F#	16e]
.	.	16d#
.	.	16c#
=14	=14	=14
4.r	8.G#	16B
.	.	16e
.	.	[16g#
.	8.A#	16g#]
.	.	16f#
.	.	16e
16BB	[4.B	8.d#
16AAn	.	.
16BB	.	.
16C#	.	8.e#
16BB	.	.
16C#	.	.
=15	=15	=15
8.FF#	16B]	8.f#
.	16A	.
.	16B	.
8.EE	16c#	8.r
.	16d#	.
.	16e	.
8.DD#	16f#	8.a#
.	16e	.
.	16f#	.
8.GG#	16d#	8.b#
.	16g#	.
.	16f#	.
=16	=16	=16
16C#	8.e	16cc#
16D#	.	16b#
16E	.	16cc#
[8.F#	8.r	16dd#
.	.	16cc#
.	.	16dd#
16F#]	4.r	16g#
16E	.	16a#
16D#	.	16b#
16E	.	16cc#
16F#	.	16dd#
16G#	.	16ee
=17	=17	=17
16A	4.r	16ff#
16G#	.	16ee
16F#	.	16ff#
16G#	.	16dd#
16A#	.	16gg#
16B#	.	16ff#
[4.c#	16g#	16ee
.	16f##	16dd#
.	16g#	16ee
.	16a#	16cc#
.	16g#	16b
.	16a#	16cc#
=18	=18	=18
8.c#]	16d#	8.aa#
.	16e#	.
.	16f##	.
8.B	16g#	8.dd#
.	16a#	.
.	16b	.
8.A#	16cc#	8.ee#
.	16b	.
.	16cc#	.
8.d#	16a#	8.ff##
.	16dd#	.
.	16cc#	.
=19	=19	=19
8.G#	16b	8.gg#
.	16a#	.
.	16b	.
8.c#	16g#	4.een
.	16cc#	.
.	16b	.
8.F#	16an	.
.	16g#	.
.	16a	.
8.B	16f#	8.dd#
.	16b	.
.	16a	.
=20	=20	=20
16E	16g#	4.ee
16D#	16f#	.
16E	16g#	.
16F#	16a#	.
16E	16g#	.
16F#	16a#	.
16BB	[4.b	8.dd#
16C#	.	.
16D#	.	.
16E	.	8.ddn
16F#	.	.
16G#	.	.
=21	=21	=21
16A	8.b]	8.cc#
16G#	.	.
16A	.	.
16F#	[8.a	16dd#
16B	.	16ee
16A	.	16ff#
16G#	8.a]	8.b
16F#	.	.
16G#	.	.
16E	[8.g#	16cc#
16A	.	16dd#
16G#	.	16ee
=22	=22	=22
16F#	8.g#]	8.a
16E	.	.
16F#	.	.
16D#	[8.f#	16b
16G#	.	16cc#
16F#	.	16dd#
16E	8.f#]	[8.g#
16D#	.	.
16E	.	.
8C#	8.e	16g#]
.	.	16b
16r	.	16a#
=23	=23	=23
16G#	8.d#	[8.b
16F#	.	.
16G#	.	.
8E	8.g#	16b]
.	.	16dd#
16r	.	16cc#
16B	8.f#	[8.dd#
16A#	.	.
16B	.	.
8G#	[8.b	16dd#]
.	.	16ff#
16r	.	16ee
=24	=24	=24
8.d#	8b]	16ff#
.	.	16gg#
.	[16an	16ff#
4.e	8a]	16ee
.	.	16ff#
.	16g#	16ee
.	8.f#	16bb
.	.	16aa#
.	.	16gg#
16d#	[8.b	16ff#
16c#	.	16ee
16B	.	16dd#
=25	=25	=25
8f#	8b]	16cc#
.	.	16dd#
16F#	16a#	16cc#
8G#	8g#	16ee
.	.	16b
16A#	16gn	16cc#
8B	8f#	16dd#
.	.	16ee
16G#	16B#	16dd#
8A#	8c#	16ff#
.	.	16cc#
16B#	16r	16dd#
=26	=26	=26
16c#	16cc#	8.ee
16Bn	16dd#	.
16An	16cc#	.
8.G#T	16b	8.ee#
.	16cc#	.
.	16b	.
8.F#	16ff#	8a
.	16een	.
.	16ddn	16r
8.r	16cc#	8r
.	16b	.
.	16a	16ff#
=27	=27	=27
8.r	16g#	8ee#
.	16a	.
.	16g#	16een
8.r	16b	8dd#
.	16f#	.
.	16g#	16ddn
8.r	16a	8cc#
.	16b	.
.	16a	16ff#
8.r	16cc#	8ee#
.	16g#	.
.	16a#	16een
=28	=28	=28
16G#	[8.b	8dd#
16A	.	.
16G#	.	16ee#
16F#	8b]	4.ff#
16G#	.	.
16F#	16an	.
16c#	8g#	.
16B	.	.
16A	16b#	.
16G#	8.cc#	[8.een
16F#	.	.
16E	.	.
=29	=29	=29
16D#	[8.f#	8.ee]
16E	.	.
16D#	.	.
16F#	16f#]	[8.dd#
16C#	16e	.
16D#	16f#	.
16E	[8.g#	8dd#]
16F#	.	.
16E	.	16cc#
16G#	16g#]	8b#
16D#	16f#	.
16E#	16g#	16bn
=30	=30	=30
[4.F#	16c#	8a#
.	16B#	.
.	16c#	16an
.	16d#	16ff#
.	16c#	16ee
.	16d#	16ff#
8.F#]	16G#	16b#
.	16A#	16cc#
.	16B#	16dd#
8.E	16c#	8.g#
.	16d#	.
.	16e	.
=31	=31	=31
8.D#	16f#	8.a#
.	16e	.
.	16f#	.
8.G#	16d#	8.b#
.	16g#	.
.	16f#	.
8.C#	16e	8.cc#
.	16d#	.
.	16e	.
8.F#	16c#	[8.an
.	16f#	.
.	16e	.
=32	=32	=32
8.BB	16d#	8.a]
.	16c#	.
.	16d#	.
8.E	16B	4.g#
.	16e	.
.	16d#	.
4.AAT	16c#	.
.	16d#	.
.	16e	.
.	16d#	8.f#
.	16e	.
.	16c#	.
=33	=33	=33
8.GG#	8.B#	16g#
.	.	16d#
.	.	[16g#
8.AA#	8.c#	16g#]
.	.	16f#
.	.	16e
8.BB#	8.d#	16d#
.	.	16f#
.	.	[16a
8.GG#	8.B#	16a]
.	.	16g#
.	.	16f#
=34	=34	=34
8.C#	16c#	8.e
.	16G#	.
.	[16c#	.
8.D#	16c#]	8.f#
.	16B	.
.	16A	.
8.E	16G#	8g#
.	16B	.
.	[16dn	16r
8.E#	16dn]	8.r
.	16c#	.
.	16B	.
=35	=35	=35
8.F#	16A	4.ff#
.	16B	.
.	[16c#	.
8.Dn	16c#]	.
.	16F#	.
.	[16B	.
8.C#	16B]	8.ee#
.	16A#	.
.	16G#	.
16F#	8.A#	8.een
16E	.	.
16F#	.	.
=36	=36	=36
16BB	8.B	8.dd#
16G#	.	.
16F#	.	.
16E#	8.b	8.gg#
16D#	.	.
16E#	.	.
16F#	8.a#	8.cc#
16G#	.	.
16En	.	.
16D#	8.an	[8.ff#
16E	.	.
16C#	.	.
=37	=37	=37
16BB#	8.g#	8.ff#]
16C#	.	.
16D#	.	.
16E	[8.cc#	8.ee
16D#	.	.
16C#	.	.
8G#	16cc#]	8.dd#
.	16b	.
16D#	16a#	.
8.G#	16b	[8.ee
.	16cc#	.
.	16b	.
=38	=38	=38
8.F##	16a#	8.ee]
.	16b	.
.	16cc#	.
8.F#	16b	[8.dd#
.	16cc#	.
.	16a#	.
8.E#	4.g#	16dd#]
.	.	16cc#
.	.	16b
8.A#	.	16cc#
.	.	16dd#
.	.	[16ee
=39	=39	=39
[8.D#	8.f##	16ee]
.	.	16dd#
.	.	16cc#
16D#]	4.g#	16b
16E	.	16cc#
16D#	.	16b
16C#	.	8.a#
16BB	.	.
16C#	.	.
16AA#	8.f##	8.r
16D#	.	.
16C#	.	.
=40	=40	=40
16BB	[4.g#	16dd#
16AA#	.	16cc#
16BB	.	16dd#
16GG#	.	16b
16C#	.	16ee
16BB	.	16dd#
8.AA#	8.g#]	16cc#
.	.	16b
.	.	16cc#
8.D#	[8.f#	16a#
.	.	16dd#
.	.	16cc#
=41	=41	=41
8.GG#	8.f#]	16b#
.	.	16a#
.	.	16g#
8.r	16e	4.cc#
.	16d#	.
.	16c#	.
16G#	4.d#	.
16F#	.	.
16G#	.	.
16D#	.	[8.bn
16G#	.	.
16F#	.	.
=42	=42	=42
16E#	4.c#	8.b]
16D#	.	.
16C#	.	.
4.F#	.	16an
.	.	16g#
.	.	16f#
.	16B	4.g#
.	16A	.
.	16B	.
[8.En	16G#	.
.	16c#	.
.	16B	.
=43	=43	=43
8.E]	16A#	4.f#
.	16G#	.
.	16F#	.
16D#	4.B	.
16C#	.	.
16BB	.	.
8.C#	.	16e
.	.	16d#
.	.	16e
8.F#	8.A#	16c#
.	.	16f#
.	.	16e
=44	=44	=44
8.BB	8.B	16d#
.	.	16f#
.	.	[16b
8r	8.c#	16b]
.	.	16a
16B	.	16g#
8.A	8.d#	16f#
.	.	16ee#
.	.	16ff#
8.G#	8.e#	16gg#
.	.	16cc#
.	.	16b
=45	=45	=45
8.F#	16f#	8.a
.	16c#	.
.	[16f#	.
8.G#	16f#]	8r
.	16en	.
.	16dn	16ff#
8.A#	16c#	8.ee
.	16b#	.
.	16cc#	.
8.B#	16dd#	[8.dd#
.	16g#	.
.	16f#	.
=46	=46	=46
8c#	8e	16dd#]
.	.	16cc#
16r	16G#	16dd#
8r	[8.c#	16ee
.	.	16a
16C#	.	16g#
8D#	16c#]	16f#
.	16B	16dd#
16r	16c#	16ee
8r	16d#	16ff#
.	16e	16b
16d#	16f#	16a
=47	=47	=47
16e	16e	16g#
16E	8r	16gg#
16F#	.	16aa
16G#	8.r	16bb
16F#	.	16ee
16G#	.	16ddn
16A	16r	[4.cc#
16G#	16e#	.
16F#	16f#	.
16E#	16g#	.
16D#	16c#	.
16E#	16B	.
=48	=48	=48
4.F#	8A	16cc#]
.	.	16b#
.	16a	16cc#
.	8.B#	16dd#
.	.	16cc#
.	.	16dd#
8.E#	[4.c#	16g#
.	.	16a#
.	.	16b#
8.En	.	16cc#
.	.	16dd#
.	.	16ee
=49	=49	=49
8.D#	8.c#]	16ff#
.	.	16ee
.	.	16ff#
8.G#	8.B#	16dd#
.	.	16gg#
.	.	16ff#
8.C#	16c#	8.ee
.	16e	.
.	[16a	.
8.BBn	16a]	8.dd#
.	16f##	.
.	[16g#	.
=50	=50	=50
8.AA	16g#]	[8.cc#
.	16f#	.
.	16e#	.
8r	[8.f#	16cc#]
.	.	16cc#
16AA#	.	16een
8.BB	16f#]	8.dd#
.	16d#	.
.	[16g#	.
8.AAn	16g#]	8.cc#
.	16e#	.
.	[16f#	.
=51	=51	=51
8.GG#	16f#]	[8.b
.	16en	.
.	16d#	.
8r	[8.e	16b]
.	.	16b
16G#	.	16ddn
16A	8.e]	16cc#
16G#	.	16b
16A	.	16cc#
16B	8.d#	16f#
16A	.	16b
16B	.	16a
=52	=52	=52
8.E	8.dn	16g#
.	.	16f#
.	.	16g#
8.A	8.c#	16e
.	.	16a
.	.	16g#
8.D#	8.cn	16f#
.	.	16e
.	.	16f#
8.E	8.B	16g#
.	.	16f#
.	.	16g#
=53	=53	=53
16AA	16c#	[4.a
16BB	16dn	.
16C#	16c#	.
16Dn	16B	.
16E	16c#	.
16D	16B	.
16C#	16e	8.a]
16BB	16d#	.
16AA	16c#	.
[8.E	16B	8.g#
.	16A	.
.	16G#	.
=54	=54	=54
8.E]	16F#	16a
.	16A	16cc#
.	16G#	16b
8.D#	16A	16cc#
.	16E	16b
.	16F#	16a
8.Dn	16G#	16b
.	16A	16ddn
.	16G#	16f#
[8.C#	16B	8e#
.	16F#	.
.	16G#	16r
=55	=55	=55
16C#]	8.A	4.cc#
16BB#	.	.
16C#	.	.
16D#	[8.a	.
16C#	.	.
16D#	.	.
16GG#	16a]	8.b#
16AA#	16g#	.
16BB#	16f#	.
16C#	16e#	8.bn
16D#	16f#	.
16E#	16g#	.
=56	=56	=56
16F#	8.c#	8.a#
16En	.	.
16F#	.	.
16D#	8.B#	8.dd#
16G#	.	.
16F#	.	.
16E	16g#	8.g#
16D#	16f#	.
16E	16g#	.
16C#	16e	[8.cc#
16F#	16an	.
16E	16g#	.
=57	=57	=57
8.D#	16f#	8.cc#]
.	16e	.
.	16f#	.
8.G#	16d#	8.b#
.	16g#	.
.	16f#	.
8.C#	16e	8cc#
.	16d#	.
.	16e	16r
8.F#	16c#	16a
.	16f#	16g#
.	16e	16a
=58	=58	=58
8.B	16d#	16f#
.	16c#	16b
.	16d#	16a
8.E	16B	16g#
.	16e	16f#
.	16d#	16g#
8.A	[8.c#	16e
.	.	16a
.	.	16g#
8.D#	16c#]	[8.f#
.	16B#	.
.	16A#	.
=59	=59	=59
[2.G#	8.B#	16f#]
.	.	16e
.	.	16d#
.	8.c#	16e
.	.	16g#
.	.	[16cc#
.	8.d#	16cc#]
.	.	16b#
.	.	16a#
.	8.f#	16b#
.	.	16dd#
.	.	[16gg#
=60	=60	=60
4.G#_	16e	16gg#]
.	16d#	16ff#
.	16c#	16ee
.	8.f##	16dd#
.	.	16ee
.	.	16cc#
8G#]	8g#	16b#
.	.	16cc#
16F#	16r	16dd#
8E	8.r	16g#
.	.	16gg#
16D#	.	16ff#
=61	=61	=61
4.C#	16G#	16ee
.	16F##	16dd#
.	16G#	16ee
.	16A#	8.f##T
.	16G#	.
.	16A#	.
8.BB#	16D#	[4.g#
.	16E#	.
.	16F#	.
8.BBn	16G#	.
.	16A#	.
.	16B	.
=62	=62	=62
8.AA#	16c#	8.g#]
.	16B	.
.	16c#	.
8.D#	16A#	[8.f#
.	16d#	.
.	16c#	.
8GG#	8.B#	16f#]
.	.	16e
16r	.	16f#
16G#	[8.Bn	16d#
16F#	.	16g#
16G#	.	16f#
=63	=63	=63
8C#	16B]	8.e#
.	16A#	.
16r	16B	.
16C#	16G#	[8.en
16BB	16c#	.
16C#	16B	.
8FF#	8.A#	16e]
.	.	16d#
16r	.	16e
16F#	[8.An	16c#
16E	.	16f#
16F#	.	16e
=64	=64	=64
[4.BB	8.A]	16d#
.	.	16c#
.	.	16B
.	16G#	[8.e
.	16F#	.
.	16E	.
8.BB_	16F#	16e]
.	16G#	16d#
.	16A#	16c#
16BB]	[8.B	16d#
16C#	.	16e#
16Dn	.	16f#
=65	=65	=65
8.EE#	16B]	[4.g#
.	16c#	.
.	16dn	.
8.E#	16c#	.
.	16d#	.
.	16B	.
8F#	8A	16g#]
.	.	16f#
16G#	16r	16e#
[8.A	8.r	16f#
.	.	16a
.	.	16cc#
=66	=66	=66
8A]	16c#	4.ff#
.	16B#	.
16G#	16c#	.
8.F#	16d#	.
.	16c#	.
.	16d#	.
[4.G#	16G#	8.ee#
.	16A#	.
.	16B#	.
.	16c#	8.een
.	16d#	.
.	16e	.
=67	=67	=67
4.G#_	16f#	8.dd#
.	16e	.
.	16f#	.
.	16d#	8.gg#
.	16g#	.
.	16f#	.
16G#]	16e	[4.cc#
16F#	16d#	.
16G#	16e	.
16A	16c#	.
16G#	16a	.
16A	16g#	.
=68	=68	=68
16D#	4.f#	16cc#]
16E	.	16b#
16F#	.	16a#
16G#	.	16b#
16A#	.	16a#
16B#	.	16g#
16c#	8.e#	8.gg#
16B#	.	.
16c#	.	.
16A#	8.en	8.ff##
16d#	.	.
16c#	.	.
=69	=69	=69
16B#	8.d#	8.ff#
16A#	.	.
16B#	.	.
16G#	8.g#	8.ee#
16c#	.	.
16Bn	.	.
16An	8.c#	8.een
16G#	.	.
16A	.	.
16BB#	[8.f#	8dd#
16C#	.	.
16D#	.	16cc#
=70	=70	=70
16E	8.f#]	8b#
16D#	.	.
16E	.	16g#
16FF##	8e	4.cc#
16GG#	.	.
16AAn	16d#	.
4.GG#	16e	.
.	16a	.
.	16g#	.
.	16f#	8.b#
.	16e	.
.	16d#	.
=71	=71	=71
8.CC#	8.e#	8.cc#
8.r	8.r	8.r
4.r	4.r	4.r
==	==	==
*-	*-	*-
!!!CDT: 1685/3/-1750/7/28
!!!OCY: Deutschland
!!!PPP: Leipzig
!!!ODT: 1738//-1742//
!!!PDT: 1739//-1742//
!!!AFR: fuga; fugue
!!!AST: polyphony
!!!AMT: compound quadruple
!!!SCA: Bach-Werke-Verzeichnis
!!!YOR: Bach Gesellschaft
!!!SMS: British Library, various
!!!AIN: cemba; clavi
!!!EEV: 1.0
!!!RDT: 1986 November 26
!!!YER: 1994 August 10
!!!EFL: 28/48
!!!VTS: 445706420
